X:813
T:Rinettan's Daughter
T:Nighean Bodach an Roainaitinn
R:Strathspey
S:Fraser Collection
M:C
L:1/8
K:C
c|:E/F/G c>G A2 A<d|c<G A>G c>G E2|G>A~c>G A/A/A A>B|c>de>d c>AA:|
a|g<ee<a g>ee>d|c<A A>G c>G E2|G>Ac>G A/A/A A>B|c>de>d c>AAa|
g>e e<a g>ee>d|e>GG>B c>G E2|G>A~c>G A/A/A A>B|c>d e<g d<e c>G||

